docs/.gitbook/assets/icon-plus-circle-16@light.svg

<svg width="32" height="32" viewBox="0 0 16 16" fill="none" xmlns="http://www.w3.org/2000/svg">
<rect x="0" y="0" width="16" height="16" fill="#fff"/>
<path fill-rule="evenodd" clip-rule="evenodd" d="M8 2.5C4.96243 2.5 2.5 4.96243 2.5 8C2.5 11.0376 4.96243 13.5 8 13.5C11.0376 13.5 13.5 11.0376 13.5 8C13.5 4.96243 11.0376 2.5 8 2.5ZM1 8C1 4.13401 4.13401 1 8 1C11.866 1 15 4.13401 15 8C15 11.866 11.866 15 8 15C4.13401 15 1 11.866 1 8ZM8 4.5C8.41421 4.5 8.75 4.83579 8.75 5.25V7.25H10.75C11.1642 7.25 11.5 7.58579 11.5 8C11.5 8.41421 11.1642 8.75 10.75 8.75H8.75V10.75C8.75 11.1642 8.41421 11.5 8 11.5C7.58579 11.5 7.25 11.1642 7.25 10.75V8.75H5.25C4.83579 8.75 4.5 8.41421 4.5 8C4.5 7.58579 4.83579 7.25 5.25 7.25H7.25V5.25C7.25 4.83579 7.58579 4.5 8 4.5Z" fill="#000"/>
</svg>

<svg xmlns="http://www.w3.org/2000/svg" width="32" height="32" fill="none" viewBox="0 0 16 16"><path fill="#fff" d="M0 0h16v16H0z"/><path fill="#000" fill-rule="evenodd" d="M8 2.5a5.5 5.5 0 1 0 0 11 5.5 5.5 0 0 0 0-11M1 8a7 7 0 1 1 14 0A7 7 0 0 1 1 8m7-3.5a.75.75 0 0 1 .75.75v2h2a.75.75 0 0 1 0 1.5h-2v2a.75.75 0 0 1-1.5 0v-2h-2a.75.75 0 0 1 0-1.5h2v-2A.75.75 0 0 1 8 4.5" clip-rule="evenodd"/></svg>
